images/instagram.svg

<svg xmlns="http://www.w3.org/2000/svg" width="60" height="60" xmlns:v="https://vecta.io/nano"><defs><clipPath id="A"><path d="M0 0h60v60H0z"/></clipPath></defs><g clip-path="url(#A)"><clipPath id="B"><path fill="#fff" d="M0 0h60v60H0z"/></clipPath><g clip-path="url(#B)"><path d="M13.216 9.986C-.367 11.865 1.528 22.599 4.966 32.935s9.554 15.691 22.003 18.397 22.439-.764 26.73-3.842 5.948-10.184 2.71-14.922-7.854-3.672-9.376-12.821S38.485 8.929 32.741 8.251s-13.888.955-19.525 1.735z" fill="#e6e6e6"/><linearGradient id="C" x1=".29" y1="30.197" x2="60.29" y2="30.197" gradientUnits="userSpaceOnUse"><stop offset="0%" stop-color="#ef804e"/><stop offset="34.32053173715783%" stop-color="#d92e55"/><stop offset="55.76584423715782%" stop-color="#8a4c99"/><stop offset="98.69565217391305%" stop-color="#5756a2"/></linearGradient><path d="M5.142 21.927c-10.155 10.799-2.536 19.935 6.134 27.664s16.741 8.867 28.546 3.255S57.919 37.27 59.725 31.454s-.834-13.789-6.181-16.233-8.556 1.639-14.974-6.209-13.161-4.816-18.286-1.675S9.356 17.445 5.142 21.927z" fill="url(#C)"/><path d="M30.29 17.083l6.467.094c4.339.197 6.36 2.253 6.56 6.557l.091 6.464-.091 6.464c-.2 4.301-2.219 6.363-6.56 6.56l-6.467.093c-4.272 0-4.778-.016-6.464-.093-4.346-.2-6.36-2.264-6.56-6.56l-.093-6.464.093-6.464c.198-4.307 2.219-6.363 6.56-6.56l6.464-.091zm0-2.885l-6.597.099c-5.813.266-9.04 3.49-9.307 9.304-.077 1.709-.096 2.253-.096 6.597l.096 6.597c.267 5.811 3.494 9.04 9.307 9.307 1.709.077 2.251.096 6.597.096s4.891-.019 6.6-.096c5.803-.267 9.043-3.491 9.304-9.307.078-1.706.096-2.25.096-6.597l-.096-6.597c-.261-5.806-3.49-9.04-9.304-9.304-1.709-.08-2.253-.099-6.6-.099zm0 7.784a8.22 8.22 0 0 0-8.216 8.216 8.22 8.22 0 0 0 8.216 8.216 8.22 8.22 0 0 0 8.216-8.216 8.22 8.22 0 0 0-8.216-8.216zm0 13.549c-2.946 0-5.333-2.386-5.333-5.333s2.387-5.333 5.333-5.333 5.336 2.386 5.336 5.333-2.392 5.333-5.336 5.333zm8.539-15.792a1.92 1.92 0 1 0 0 3.84 1.92 1.92 0 1 0 0-3.84z" fill="#fff"/></g></g></svg>

<?xml version="1.0" standalone="no"?><!-- Generator: Gravit.io --><svg xmlns="http://www.w3.org/2000/svg" xmlns:xlink="http://www.w3.org/1999/xlink" style="isolation:isolate" viewBox="0 0 60 60" width="60" height="60"><defs><clipPath id="_clipPath_vbhb2hcdptpJrldL35IMNlnBzrM8EMSi"><rect width="60" height="60"/></clipPath></defs><g clip-path="url(#_clipPath_vbhb2hcdptpJrldL35IMNlnBzrM8EMSi)"><clipPath id="_clipPath_2GaVmxYY478kmMuh73wJv6FZ1WvLuuNV"><rect x="0" y="0" width="60" height="60" transform="matrix(1,0,0,1,0,0)" fill="rgb(255,255,255)"/></clipPath><g clip-path="url(#_clipPath_2GaVmxYY478kmMuh73wJv6FZ1WvLuuNV)"><g><path d=" M 13.216 9.986 C -0.367 11.865 1.528 22.599 4.966 32.935 C 8.404 43.271 14.52 48.626 26.969 51.332 C 39.418 54.038 49.408 50.568 53.699 47.49 C 57.989 44.411 59.647 37.306 56.409 32.568 C 53.17 27.83 48.555 28.896 47.033 19.747 C 45.512 10.598 38.485 8.929 32.741 8.251 C 26.998 7.573 18.853 9.206 13.216 9.986 Z " fill="rgb(230,230,230)"/><linearGradient id="_lgradient_0" x1="-0.000010703212699373667" y1="0.4999959480463939" x2="0.9999879582271652" y2="0.4999959480463939" gradientTransform="matrix(60,0,0,52.319,0.291,4.038)" gradientUnits="userSpaceOnUse"><stop offset="0%" stop-opacity="1" style="stop-color:rgb(239,128,78)"/><stop offset="34.32053173715783%" stop-opacity="1" style="stop-color:rgb(217,46,85)"/><stop offset="55.76584423715782%" stop-opacity="1" style="stop-color:rgb(138,76,153)"/><stop offset="98.69565217391305%" stop-opacity="1" style="stop-color:rgb(87,86,162)"/></linearGradient><path d=" M 5.142 21.927 C -5.013 32.726 2.606 41.862 11.276 49.591 C 19.946 57.321 28.017 58.458 39.822 52.846 C 51.628 47.233 57.919 37.27 59.725 31.454 C 61.531 25.638 58.891 17.665 53.544 15.221 C 48.197 12.778 44.988 16.86 38.57 9.012 C 32.153 1.164 25.409 4.196 20.284 7.337 C 15.159 10.479 9.356 17.445 5.142 21.927 Z " fill="url(#_lgradient_0)"/><path d=" M 30.29 17.083 C 34.562 17.083 35.069 17.099 36.757 17.177 C 41.096 17.374 43.117 19.43 43.317 23.734 C 43.392 25.422 43.408 25.926 43.408 30.198 C 43.408 34.47 43.392 34.977 43.317 36.662 C 43.117 40.963 41.098 43.025 36.757 43.222 C 35.069 43.297 34.565 43.315 30.29 43.315 C 26.018 43.315 25.512 43.299 23.826 43.222 C 19.48 43.022 17.466 40.958 17.266 36.662 C 17.192 34.977 17.173 34.47 17.173 30.198 C 17.173 25.926 17.192 25.419 17.266 23.734 C 17.464 19.427 19.485 17.371 23.826 17.174 C 25.512 17.097 26.018 17.083 30.29 17.083 Z  M 30.29 14.198 C 25.944 14.198 25.402 14.217 23.693 14.297 C 17.88 14.563 14.653 17.787 14.386 23.601 C 14.309 25.31 14.29 25.854 14.29 30.198 C 14.29 34.545 14.309 35.089 14.386 36.795 C 14.653 42.606 17.88 45.835 23.693 46.102 C 25.402 46.179 25.944 46.198 30.29 46.198 C 34.637 46.198 35.181 46.179 36.89 46.102 C 42.693 45.835 45.933 42.611 46.194 36.795 C 46.272 35.089 46.29 34.545 46.29 30.198 C 46.29 25.854 46.272 25.31 46.194 23.601 C 45.933 17.795 42.704 14.561 36.89 14.297 C 35.181 14.217 34.637 14.198 30.29 14.198 Z  M 30.29 21.982 C 25.754 21.982 22.074 25.659 22.074 30.198 C 22.074 34.737 25.754 38.414 30.29 38.414 C 34.826 38.414 38.506 34.737 38.506 30.198 C 38.506 25.662 34.826 21.982 30.29 21.982 Z  M 30.29 35.531 C 27.344 35.531 24.957 33.145 24.957 30.198 C 24.957 27.254 27.344 24.865 30.29 24.865 C 33.234 24.865 35.626 27.251 35.626 30.198 C 35.626 33.145 33.234 35.531 30.29 35.531 Z  M 38.829 19.739 C 37.77 19.739 36.909 20.598 36.909 21.659 C 36.909 22.718 37.768 23.579 38.829 23.579 C 39.89 23.579 40.752 22.721 40.752 21.659 C 40.752 20.598 39.893 19.739 38.829 19.739 Z " fill="rgb(255,255,255)"/></g></g></g></svg>
